flaticon/business/cart-10.svg

<svg xmlns="http://www.w3.org/2000/svg" width="32" height="32" viewBox="0 0 24 24">
    <path d="M 24 16.679688 L 24 6.101562 L 4.472656 6.101562 L 4.472656 2.847656 C 4.472656 2.621094 4.292969 2.441406 4.066406 2.441406 L 3.195312 2.441406 C 3.015625 1.742188 2.382812 1.21875 1.628906 1.21875 C 0.730469 1.21875 0 1.949219 0 2.847656 C 0 3.746094 0.730469 4.472656 1.628906 4.472656 C 2.382812 4.472656 3.015625 3.953125 3.195312 3.253906 L 3.660156 3.253906 L 3.660156 18.710938 C 3.660156 18.9375 3.84375 19.117188 4.066406 19.117188 L 6.929688 19.117188 C 6.429688 19.488281 6.101562 20.078125 6.101562 20.746094 C 6.101562 21.867188 7.015625 22.78125 8.136719 22.78125 C 9.257812 22.78125 10.167969 21.867188 10.167969 20.746094 C 10.167969 20.078125 9.839844 19.488281 9.34375 19.117188 L 16.691406 19.117188 C 16.191406 19.488281 15.863281 20.078125 15.863281 20.746094 C 15.863281 21.867188 16.777344 22.78125 17.898438 22.78125 C 19.019531 22.78125 19.933594 21.867188 19.933594 20.746094 C 19.933594 20.078125 19.605469 19.488281 19.105469 19.117188 L 21.558594 19.117188 C 21.785156 19.117188 21.964844 18.9375 21.964844 18.710938 C 21.964844 18.488281 21.785156 18.304688 21.558594 18.304688 L 4.472656 18.304688 L 4.472656 16.679688 Z M 1.628906 3.660156 C 1.179688 3.660156 0.8125 3.296875 0.8125 2.847656 C 0.8125 2.398438 1.179688 2.035156 1.628906 2.035156 C 1.925781 2.035156 2.1875 2.199219 2.328125 2.441406 L 2.035156 2.441406 C 1.808594 2.441406 1.628906 2.621094 1.628906 2.847656 C 1.628906 3.074219 1.808594 3.253906 2.035156 3.253906 L 2.328125 3.253906 C 2.1875 3.496094 1.925781 3.660156 1.628906 3.660156 Z M 8.136719 21.964844 C 7.460938 21.964844 6.914062 21.417969 6.914062 20.746094 C 6.914062 20.074219 7.460938 19.527344 8.136719 19.527344 C 8.808594 19.527344 9.355469 20.074219 9.355469 20.746094 C 9.355469 21.417969 8.808594 21.964844 8.136719 21.964844 Z M 17.898438 21.964844 C 17.226562 21.964844 16.679688 21.417969 16.679688 20.746094 C 16.679688 20.074219 17.226562 19.527344 17.898438 19.527344 C 18.570312 19.527344 19.117188 20.074219 19.117188 20.746094 C 19.117188 21.417969 18.570312 21.964844 17.898438 21.964844 Z M 23.1875 15.863281 L 4.472656 15.863281 L 4.472656 6.914062 L 23.1875 6.914062 Z M 23.1875 15.863281"/>
    <path d="M7.320312 13.832031C7.097656 13.832031 6.914062 14.011719 6.914062 14.238281L6.914062 15.050781C6.914062 15.277344 7.097656 15.457031 7.320312 15.457031 7.546875 15.457031 7.730469 15.277344 7.730469 15.050781L7.730469 14.238281C7.730469 14.011719 7.546875 13.832031 7.320312 13.832031zM7.320312 8.949219C7.546875 8.949219 7.730469 8.765625 7.730469 8.542969L7.730469 7.730469C7.730469 7.503906 7.546875 7.320312 7.320312 7.320312 7.097656 7.320312 6.914062 7.503906 6.914062 7.730469L6.914062 8.542969C6.914062 8.765625 7.097656 8.949219 7.320312 8.949219zM7.320312 12.203125C7.546875 12.203125 7.730469 12.023438 7.730469 11.796875L7.730469 10.984375C7.730469 10.757812 7.546875 10.578125 7.320312 10.578125 7.097656 10.578125 6.914062 10.757812 6.914062 10.984375L6.914062 11.796875C6.914062 12.023438 7.097656 12.203125 7.320312 12.203125zM10.578125 13.832031C10.351562 13.832031 10.167969 14.011719 10.167969 14.238281L10.167969 15.050781C10.167969 15.277344 10.351562 15.457031 10.578125 15.457031 10.800781 15.457031 10.984375 15.277344 10.984375 15.050781L10.984375 14.238281C10.984375 14.011719 10.800781 13.832031 10.578125 13.832031zM10.578125 8.949219C10.800781 8.949219 10.984375 8.765625 10.984375 8.542969L10.984375 7.730469C10.984375 7.503906 10.800781 7.320312 10.578125 7.320312 10.351562 7.320312 10.167969 7.503906 10.167969 7.730469L10.167969 8.542969C10.167969 8.765625 10.351562 8.949219 10.578125 8.949219zM10.578125 12.203125C10.800781 12.203125 10.984375 12.023438 10.984375 11.796875L10.984375 10.984375C10.984375 10.757812 10.800781 10.578125 10.578125 10.578125 10.351562 10.578125 10.167969 10.757812 10.167969 10.984375L10.167969 11.796875C10.167969 12.023438 10.351562 12.203125 10.578125 12.203125zM13.832031 13.832031C13.605469 13.832031 13.421875 14.011719 13.421875 14.238281L13.421875 15.050781C13.421875 15.277344 13.605469 15.457031 13.832031 15.457031 14.054688 15.457031 14.238281 15.277344 14.238281 15.050781L14.238281 14.238281C14.238281 14.011719 14.054688 13.832031 13.832031 13.832031zM13.832031 8.949219C14.054688 8.949219 14.238281 8.765625 14.238281 8.542969L14.238281 7.730469C14.238281 7.503906 14.054688 7.320312 13.832031 7.320312 13.605469 7.320312 13.421875 7.503906 13.421875 7.730469L13.421875 8.542969C13.421875 8.765625 13.605469 8.949219 13.832031 8.949219zM13.832031 12.203125C14.054688 12.203125 14.238281 12.023438 14.238281 11.796875L14.238281 10.984375C14.238281 10.757812 14.054688 10.578125 13.832031 10.578125 13.605469 10.578125 13.421875 10.757812 13.421875 10.984375L13.421875 11.796875C13.421875 12.023438 13.605469 12.203125 13.832031 12.203125zM17.085938 13.832031C16.859375 13.832031 16.679688 14.011719 16.679688 14.238281L16.679688 15.050781C16.679688 15.277344 16.859375 15.457031 17.085938 15.457031 17.308594 15.457031 17.492188 15.277344 17.492188 15.050781L17.492188 14.238281C17.492188 14.011719 17.308594 13.832031 17.085938 13.832031zM17.085938 8.949219C17.308594 8.949219 17.492188 8.765625 17.492188 8.542969L17.492188 7.730469C17.492188 7.503906 17.308594 7.320312 17.085938 7.320312 16.859375 7.320312 16.679688 7.503906 16.679688 7.730469L16.679688 8.542969C16.679688 8.765625 16.859375 8.949219 17.085938 8.949219zM17.085938 12.203125C17.308594 12.203125 17.492188 12.023438 17.492188 11.796875L17.492188 10.984375C17.492188 10.757812 17.308594 10.578125 17.085938 10.578125 16.859375 10.578125 16.679688 10.757812 16.679688 10.984375L16.679688 11.796875C16.679688 12.023438 16.859375 12.203125 17.085938 12.203125zM20.339844 13.832031C20.113281 13.832031 19.933594 14.011719 19.933594 14.238281L19.933594 15.050781C19.933594 15.277344 20.113281 15.457031 20.339844 15.457031 20.5625 15.457031 20.746094 15.277344 20.746094 15.050781L20.746094 14.238281C20.746094 14.011719 20.5625 13.832031 20.339844 13.832031zM20.339844 8.949219C20.5625 8.949219 20.746094 8.765625 20.746094 8.542969L20.746094 7.730469C20.746094 7.503906 20.5625 7.320312 20.339844 7.320312 20.113281 7.320312 19.933594 7.503906 19.933594 7.730469L19.933594 8.542969C19.933594 8.765625 20.113281 8.949219 20.339844 8.949219zM20.339844 12.203125C20.5625 12.203125 20.746094 12.023438 20.746094 11.796875L20.746094 10.984375C20.746094 10.757812 20.5625 10.578125 20.339844 10.578125 20.113281 10.578125 19.933594 10.757812 19.933594 10.984375L19.933594 11.796875C19.933594 12.023438 20.113281 12.203125 20.339844 12.203125zM5.289062 13.421875L6.507812 13.421875C6.734375 13.421875 6.914062 13.242188 6.914062 13.015625 6.914062 12.792969 6.734375 12.609375 6.507812 12.609375L5.289062 12.609375C5.0625 12.609375 4.882812 12.792969 4.882812 13.015625 4.882812 13.242188 5.0625 13.421875 5.289062 13.421875zM5.289062 10.167969L6.507812 10.167969C6.734375 10.167969 6.914062 9.988281 6.914062 9.761719 6.914062 9.539062 6.734375 9.355469 6.507812 9.355469L5.289062 9.355469C5.0625 9.355469 4.882812 9.539062 4.882812 9.761719 4.882812 9.988281 5.0625 10.167969 5.289062 10.167969zM9.761719 12.609375L8.136719 12.609375C7.910156 12.609375 7.730469 12.792969 7.730469 13.015625 7.730469 13.242188 7.910156 13.421875 8.136719 13.421875L9.761719 13.421875C9.988281 13.421875 10.167969 13.242188 10.167969 13.015625 10.167969 12.792969 9.988281 12.609375 9.761719 12.609375zM8.136719 10.167969L9.761719 10.167969C9.988281 10.167969 10.167969 9.988281 10.167969 9.761719 10.167969 9.539062 9.988281 9.355469 9.761719 9.355469L8.136719 9.355469C7.910156 9.355469 7.730469 9.539062 7.730469 9.761719 7.730469 9.988281 7.910156 10.167969 8.136719 10.167969zM13.015625 12.609375L11.390625 12.609375C11.164062 12.609375 10.984375 12.792969 10.984375 13.015625 10.984375 13.242188 11.164062 13.421875 11.390625 13.421875L13.015625 13.421875C13.242188 13.421875 13.421875 13.242188 13.421875 13.015625 13.421875 12.792969 13.242188 12.609375 13.015625 12.609375zM11.390625 10.167969L13.015625 10.167969C13.242188 10.167969 13.421875 9.988281 13.421875 9.761719 13.421875 9.539062 13.242188 9.355469 13.015625 9.355469L11.390625 9.355469C11.164062 9.355469 10.984375 9.539062 10.984375 9.761719 10.984375 9.988281 11.164062 10.167969 11.390625 10.167969zM16.269531 12.609375L14.644531 12.609375C14.417969 12.609375 14.238281 12.792969 14.238281 13.015625 14.238281 13.242188 14.417969 13.421875 14.644531 13.421875L16.269531 13.421875C16.496094 13.421875 16.679688 13.242188 16.679688 13.015625 16.679688 12.792969 16.496094 12.609375 16.269531 12.609375zM14.644531 10.167969L16.269531 10.167969C16.496094 10.167969 16.679688 9.988281 16.679688 9.761719 16.679688 9.539062 16.496094 9.355469 16.269531 9.355469L14.644531 9.355469C14.417969 9.355469 14.238281 9.539062 14.238281 9.761719 14.238281 9.988281 14.417969 10.167969 14.644531 10.167969zM19.527344 12.609375L17.898438 12.609375C17.671875 12.609375 17.492188 12.792969 17.492188 13.015625 17.492188 13.242188 17.671875 13.421875 17.898438 13.421875L19.527344 13.421875C19.75 13.421875 19.933594 13.242188 19.933594 13.015625 19.933594 12.792969 19.75 12.609375 19.527344 12.609375zM17.898438 10.167969L19.527344 10.167969C19.75 10.167969 19.933594 9.988281 19.933594 9.761719 19.933594 9.539062 19.75 9.355469 19.527344 9.355469L17.898438 9.355469C17.671875 9.355469 17.492188 9.539062 17.492188 9.761719 17.492188 9.988281 17.671875 10.167969 17.898438 10.167969zM22.371094 12.609375L21.152344 12.609375C20.929688 12.609375 20.746094 12.792969 20.746094 13.015625 20.746094 13.242188 20.929688 13.421875 21.152344 13.421875L22.371094 13.421875C22.597656 13.421875 22.78125 13.242188 22.78125 13.015625 22.78125 12.792969 22.597656 12.609375 22.371094 12.609375zM21.152344 10.167969L22.371094 10.167969C22.597656 10.167969 22.78125 9.988281 22.78125 9.761719 22.78125 9.539062 22.597656 9.355469 22.371094 9.355469L21.152344 9.355469C20.929688 9.355469 20.746094 9.539062 20.746094 9.761719 20.746094 9.988281 20.929688 10.167969 21.152344 10.167969zM21.152344 10.167969"/>
</svg>

<svg xmlns="http://www.w3.org/2000/svg" width="32" height="32" viewBox="0 0 24 24">
    <path d="M24 16.68V6.102H4.473V2.848a.403.403 0 0 0-.407-.407h-.87A1.625 1.625 0 0 0 1.628 1.22a1.627 1.627 0 0 0 0 3.254c.754 0 1.387-.52 1.566-1.22h.465v15.458c0 .227.184.406.406.406H6.93c-.5.371-.828.961-.828 1.63 0 1.12.914 2.034 2.035 2.034a2.036 2.036 0 0 0 2.031-2.035c0-.668-.328-1.258-.824-1.629h7.347c-.5.371-.828.961-.828 1.63 0 1.12.914 2.034 2.035 2.034a2.039 2.039 0 0 0 2.036-2.035c0-.668-.329-1.258-.829-1.629h2.454a.406.406 0 1 0 0-.813H4.473V16.68zM1.629 3.66a.815.815 0 0 1-.817-.812.811.811 0 1 1 1.516-.406h-.293a.403.403 0 0 0-.406.406c0 .226.18.406.406.406h.293a.811.811 0 0 1-.7.406zm6.508 18.305a1.221 1.221 0 0 1-1.223-1.219 1.221 1.221 0 0 1 2.441 0 1.22 1.22 0 0 1-1.218 1.219zm9.761 0a1.22 1.22 0 0 1-1.218-1.219 1.22 1.22 0 0 1 1.218-1.219 1.22 1.22 0 0 1 1.22 1.22 1.22 1.22 0 0 1-1.22 1.218zm5.29-6.102H4.473V6.914h18.715zm0 0"/>
    <path d="M7.32 13.832a.406.406 0 0 0-.406.406v.813c0 .226.184.406.406.406.227 0 .41-.18.41-.406v-.813a.407.407 0 0 0-.41-.406zm0 0M7.32 8.95a.41.41 0 0 0 .41-.407V7.73a.41.41 0 0 0-.41-.41.41.41 0 0 0-.406.41v.813c0 .223.184.406.406.406zm0 0M7.32 12.203c.227 0 .41-.18.41-.406v-.813a.407.407 0 0 0-.41-.406.406.406 0 0 0-.406.406v.813c0 .226.184.406.406.406zm0 0M10.578 13.832c-.226 0-.41.18-.41.406v.813c0 .226.184.406.41.406.223 0 .406-.18.406-.406v-.813a.406.406 0 0 0-.406-.406zm0 0M10.578 8.95a.408.408 0 0 0 .406-.407V7.73a.41.41 0 0 0-.406-.41.41.41 0 0 0-.41.41v.813a.41.41 0 0 0 .41.406zm0 0M10.578 12.203c.223 0 .406-.18.406-.406v-.813a.406.406 0 0 0-.406-.406c-.226 0-.41.18-.41.406v.813c0 .226.184.406.41.406zm0 0M13.832 13.832c-.227 0-.41.18-.41.406v.813c0 .226.183.406.41.406.223 0 .406-.18.406-.406v-.813a.406.406 0 0 0-.406-.406zm0 0M13.832 8.95a.408.408 0 0 0 .406-.407V7.73a.41.41 0 0 0-.406-.41.41.41 0 0 0-.41.41v.813a.41.41 0 0 0 .41.406zm0 0M13.832 12.203c.223 0 .406-.18.406-.406v-.813a.406.406 0 0 0-.406-.406c-.227 0-.41.18-.41.406v.813c0 .226.183.406.41.406zm0 0M17.086 13.832a.403.403 0 0 0-.406.406v.813a.406.406 0 1 0 .813 0v-.813a.406.406 0 0 0-.407-.406zm0 0M17.086 8.95a.408.408 0 0 0 .406-.407V7.73a.407.407 0 0 0-.813 0v.813c0 .223.18.406.407.406zm0 0M17.086 12.203c.223 0 .406-.18.406-.406v-.813a.406.406 0 1 0-.812 0v.813c0 .226.18.406.406.406zm0 0M20.34 13.832a.403.403 0 0 0-.406.406v.813a.406.406 0 1 0 .813 0v-.813a.406.406 0 0 0-.407-.406zm0 0M20.34 8.95a.408.408 0 0 0 .406-.407V7.73a.407.407 0 0 0-.813 0v.813c0 .223.18.406.407.406zm0 0M20.34 12.203c.223 0 .406-.18.406-.406v-.813a.406.406 0 1 0-.812 0v.813c0 .226.18.406.406.406zm0 0M5.29 13.422h1.218a.406.406 0 1 0 0-.813H5.289a.406.406 0 1 0 0 .813zm0 0M5.29 10.168h1.218a.406.406 0 1 0 0-.813H5.289a.406.406 0 1 0 0 .813zm0 0M9.762 12.61H8.137a.406.406 0 1 0 0 .812h1.625a.406.406 0 1 0 0-.813zm0 0M8.137 10.168h1.625a.406.406 0 1 0 0-.813H8.137a.406.406 0 1 0 0 .813zm0 0M13.016 12.61H11.39a.406.406 0 1 0 0 .812h1.625a.406.406 0 1 0 0-.813zm0 0M11.39 10.168h1.626a.406.406 0 1 0 0-.813H11.39a.406.406 0 1 0 0 .813zm0 0M16.27 12.61h-1.625a.406.406 0 1 0 0 .812h1.625a.407.407 0 1 0 0-.813zm0 0M14.645 10.168h1.625a.407.407 0 1 0 0-.813h-1.625a.406.406 0 1 0 0 .813zm0 0M19.527 12.61h-1.629a.406.406 0 1 0 0 .812h1.63a.406.406 0 1 0 0-.813zm0 0M17.898 10.168h1.63a.406.406 0 1 0 0-.813h-1.63a.406.406 0 1 0 0 .813zm0 0M22.371 12.61h-1.219a.406.406 0 1 0 0 .813l1.22-.001a.407.407 0 1 0 0-.813zm0 0M21.152 10.168h1.22a.407.407 0 1 0 0-.813h-1.22a.406.406 0 1 0 0 .813zm0 0"/>
</svg>
